X:1
T:Title
%%score { 1 | 2 }
L:1/8
M:4/4
K:Db
V:1 treble nm="Grand Piano"
V:2 bass 
V:1
 z4 z[Q:1/4=94] ABA | F3 F FFEF | G4- GGGA | c3 B BA A>G | F4- FABA | F3 [Fd] [Fd][Fd]dc | %6
[M:5/8] B-B- B3 |[M:3/8] Bcd |[M:4/4] d3 F [CA][CG][CF][CE] | D6 z2 | B>B B>c d2 c>B | %11
 [FA]>[GB] [FA]>[DF] [FA]4 | B>B B>c d2 c>B | [FA]>[GB] [FA]>[DF] [CE]4 | %14
 [CE]>[CE] [CE]>[DF] [EG]2 [DF]>[CE] | F>F F>[EG] [FA]2 B>B | %16
[M:19/16] A-<Ad-<de/-e/-e/-e/-e/-e-<e[Fd] |[M:5/8] [Fd]- [Fd]3 z |] %18
V:2
 z4 z [D,F,D][D,G,D][D,F,D] | [D,A,D]3 [D,A,D] [D,A,D][D,A,D][D,G,D][D,A,D] | %2
 [E,A,C]4- [E,A,C][K:treble][A,CE][A,CE][A,CF] | %3
 [A,EG]3 [A,DG] [A,CG][A,CF] [A,CF]>[K:bass][A,CE] | [D,A,D]4- [D,A,D][D,F,D][D,G,D][D,F,D] | %5
 [D,A,D]3 [D,A,] [D,A,][D,A,][F,=A,F][F,A,E] |[M:5/8] [G,B,D]-[G,B,D]- [G,B,D]3 | %7
[M:3/8][K:treble] [G,DG][G,CG][G,B,G] |[M:4/4] [A,DF]3 [A,D][K:bass] [A,,E,][A,,E,][A,,A,][A,,G,] | %9
 [D,F,]6 z2 | [G,D]>[G,DG] [G,DG]>[G,CG] [G,B,G]2 [G,CG]>[G,DG] | [D,D]>[D,D] [D,D]>[D,A,] [D,D]4 | %12
 [G,DG]>[G,DG] [G,DG]>[G,CG] [G,B,G]2 [G,DG]>[G,DG] | [D,D]>[D,D] [D,D]>[D,A,] [A,,A,]4 | %14
 [A,,A,]>[A,,A,] [A,,A,]>[A,,A,] [A,,A,]2 [A,,A,]>[A,,A,] | %15
 [D,A,D]>[D,A,D] [D,A,D]>[D,A,] [D,D]2[K:treble] [G,DG]>[G,DG] | %16
[M:19/16] [A,DF]-<[A,DF][A,DF]-<[A,DF][A,CG]/-[A,CG]/-[A,CG]/-[A,CG]/-[A,CG]/-[A,CG]-<[A,CG][K:bass][D,A,] | %17
[M:5/8] [D,A,]- [D,A,]3 z |] %18

